packages/foundations/assets/icons/functional/images/technology/speedometer_16_filled.svg

<svg width="16" height="16" viewBox="0 0 16 16" fill="none" xmlns="http://www.w3.org/2000/svg">
<g clip-path="url(#clip0_2214_6617)">
<path fill-rule="evenodd" clip-rule="evenodd" d="M7.99998 2.40002C11.5309 2.40002 14.4 5.32453 14.4 8.79951C14.4 10.6305 13.5974 12.2205 12.2262 13.4053C12.1051 13.51 11.9045 13.6 11.6986 13.6H4.29684C4.10477 13.6 3.91911 13.5309 3.77378 13.4053C2.40258 12.2205 1.59998 10.6305 1.59998 8.79951C1.59998 5.32453 4.46902 2.40002 7.99998 2.40002ZM11.3657 5.43383C11.0773 5.14544 10.5775 5.08964 10.2343 5.43383C9.67808 5.99157 9.07119 6.59812 8.41361 7.25349C8.28167 7.21828 8.14301 7.19951 7.99998 7.19951C7.11632 7.19951 6.39998 7.91586 6.39998 8.79951C6.39998 9.68317 7.11632 10.3995 7.99998 10.3995C8.88363 10.3995 9.59998 9.68317 9.59998 8.79951C9.59998 8.65647 9.58121 8.51782 9.546 8.38588L11.3657 6.5652C11.7035 6.22455 11.654 5.72221 11.3657 5.43383Z" fill="#1A1C1F"/>
</g>
<defs>
<clipPath id="clip0_2214_6617">
<rect width="16" height="16" fill="white"/>
</clipPath>
</defs>
</svg>

<svg xmlns="http://www.w3.org/2000/svg" width="16" height="16" fill="none"><g clip-path="url(#a)"><path fill="#1A1C1F" fill-rule="evenodd" d="M8 2.4c3.53 0 6.4 2.925 6.4 6.4 0 1.83-.803 3.42-2.174 4.605a.85.85 0 0 1-.527.195H4.297a.8.8 0 0 1-.523-.195C2.403 12.221 1.6 10.631 1.6 8.8c0-3.475 2.869-6.4 6.4-6.4m3.366 3.034a.793.793 0 0 0-1.132 0q-.834.836-1.82 1.82A1.602 1.602 0 0 0 6.4 8.8a1.6 1.6 0 1 0 3.146-.414l1.82-1.82a.8.8 0 0 0 0-1.132" clip-rule="evenodd"/></g><defs><clipPath id="a"><path fill="#fff" d="M0 0h16v16H0z"/></clipPath></defs></svg>
